X:554
T:Dragi ljudi, lahku noc
Z:Jack Campin, http://www.campin.me.uk/
F:Jack Campin's Nine-Note Tunebook
% last edit 03-02-2013
G:Croatian part song
B:Vinko Zganec: Narodni Popijevke Hrvatskog Zagora
M:2/4
L:1/8
Q:1/4=54
K:F
[V:1] FG A{c}B   |c2 ({B}c2)|    A3  A/G/|d2 dd|{d}c3||
[V:2] z4         |A2     G2 |    F3  z   |B2 BB|{B}A3||
%
[V:1]      |:F   |dd     dd |({d}c2) Ac  |dc Bc|   A3:|
[V:2]      |:z   |BB     BB |    A2  FA  |BA GG|   F3:|
%
[V:1]        z   |cc     Ac |    dc  BB  |cc AA|   G3||
[V:2]        z   |AA     FA |    BA  GG  |AG FF|   C3||
%
[V:1]      |:A/G/|dd     dd |    dc  Ac  |dc Bc|[1 A3:|[2 A4|]
[V:2]      |:C   |BB     BB |    BA  FA  |BA GG|[1 F3:|[2 F4|]

